assets/logos/the-north-face.svg

<svg width="437" height="206" viewBox="0 0 437 206" fill="none" xmlns="http://www.w3.org/2000/svg">
<g clip-path="url(#clip0_17_34)">
<path d="M153.775 61.0737H141.124V11.1241H122.802V0.21812H172.097V11.1241H153.775V61.0737ZM189.329 33.8087V61.0737H176.678V0.21812H189.329V23.3389H213.104V0.21812H225.755V61.0737H213.104V33.8087H189.329ZM274.832 10.906H242.986V23.7751H271.124V34.463H242.986V50.3858H274.832V61.0737H231.208V0.21812H274.832V10.906ZM37.7348 70.4529H49.5133V131.09H36.8624L11.9966 87.9025H11.7785V131.09H0V70.4529H13.3053L37.5167 112.55H37.7348V70.4529ZM84.4126 68.7079C92.4831 68.7079 113.641 72.1979 113.641 100.554C113.641 128.909 92.4831 132.399 84.4126 132.399C76.3422 132.399 55.1845 128.909 55.1845 100.554C55.1845 72.1979 76.3422 68.7079 84.4126 68.7079ZM84.4126 121.929C91.1743 121.929 100.772 117.785 100.772 100.772C100.772 83.7582 91.1743 79.614 84.4126 79.614C77.6509 79.614 67.8355 83.7582 67.8355 100.772C67.8355 117.785 77.6509 121.929 84.4126 121.929ZM203.07 131.09H190.419V81.1408H171.879V70.4529H221.392V81.1408H203.07V131.09ZM238.624 103.825V131.09H225.973V70.4529H238.624V93.3555H262.181V70.4529H274.832V131.09H262.181V103.825H238.624ZM118.876 70.4529H149.631C165.772 70.4529 168.825 82.4495 168.825 87.6844C168.825 94.4461 165.335 100.117 159.446 102.08C164.463 104.262 167.08 106.225 167.08 117.567C167.08 126.51 167.08 128.691 169.698 129.564V131.09H155.738C154.866 128.255 154.429 125.201 154.429 118.876C154.429 110.587 153.993 107.315 144.614 107.315H131.527V131.09H119.094L118.876 70.4529ZM146.141 97.0636C152.684 97.0636 155.956 94.6643 155.956 88.775C155.956 85.5032 154.429 80.9227 147.013 80.9227H131.309V97.0636H146.141ZM89.4294 203.07H76.5603V140.688H120.839V151.812H89.4294V165.772H116.913V176.896H89.4294V203.07ZM126.728 203.07H112.986L135.235 140.688H150.285L172.315 203.07H158.137L154.211 190.201H130.872L126.728 203.07ZM134.362 179.513H150.285L142.651 154.866H142.433L134.362 179.513ZM212.013 161.409C210.922 157.701 208.959 150.721 198.271 150.721C191.946 150.721 182.785 154.866 182.785 172.533C182.785 183.657 187.147 193.691 198.271 193.691C205.469 193.691 210.486 189.547 212.013 181.912H225.1C222.483 195.436 213.758 204.815 198.053 204.815C181.476 204.815 169.698 193.691 169.698 172.097C169.698 150.285 182.349 139.161 198.271 139.161C216.812 139.161 224.446 152.03 225.1 161.191H212.013V161.409ZM275.05 151.812H242.332V164.899H271.342V175.805H242.332V191.946H275.05V203.07H230.335V140.688H275.05V151.812ZM53.0033 171.443C62.1643 171.443 69.7985 178.641 69.7985 188.238C69.7985 197.835 62.1643 205.033 53.0033 205.033C43.8422 205.033 35.9899 197.835 35.9899 188.238C35.9899 178.641 43.8422 171.443 53.0033 171.443ZM53.0033 202.634C60.8556 202.634 66.7449 196.527 66.7449 188.238C66.7449 180.167 60.6375 174.06 53.0033 174.06C45.1509 174.06 39.0436 180.167 39.0436 188.238C39.0436 196.308 45.1509 202.634 53.0033 202.634ZM46.4597 178.423H54.0939C58.6744 178.423 61.0737 180.167 61.0737 184.094C61.0737 187.584 58.8925 189.11 55.8388 189.547L61.51 198.271H58.2382L52.7851 189.765H49.5133V198.271H46.4597V178.423ZM49.5133 187.147H52.7851C55.4026 187.147 58.02 186.929 58.02 183.876C58.02 181.258 55.8388 180.822 53.6576 180.822H49.5133V187.147ZM316.493 199.144V167.08C316.493 152.684 304.714 140.906 290.318 140.906H287.483V203.288H316.493V199.144ZM436.241 199.144V145.923C436.241 65.4361 370.805 0 290.318 0H288.791H289.01H287.483V61.0737H291.627C338.959 61.7281 377.566 100.335 378.221 147.668V202.852H436.241V199.144Z" fill="black"/>
<path d="M368.842 201.325V148.54C368.624 106.443 335.033 72.1978 293.372 70.4529H288.573H288.791H287.265V131.308H290.1C309.731 131.308 325.436 147.231 325.436 166.644V202.852H368.842V201.325Z" fill="black"/>
</g>
<defs>
<clipPath id="clip0_17_34">
<rect width="436.241" height="205.033" fill="white"/>
</clipPath>
</defs>
</svg>

<svg xmlns="http://www.w3.org/2000/svg" width="437" height="206" fill="none" viewBox="0 0 437 206"><g fill="#000" clip-path="url(#a)"><path d="M153.775 61.074h-12.651v-49.95h-18.322V.218h49.295v10.906h-18.322zm35.554-27.265v27.265h-12.651V.218h12.651v23.12h23.775V.219h12.651v60.856h-12.651V33.809zm85.503-22.903h-31.846v12.87h28.138v10.687h-28.138v15.923h31.846v10.688h-43.624V.218h43.624zM37.735 70.453h11.778v60.637h-12.65L11.996 87.903h-.219v43.187H0V70.453h13.305l24.212 42.097h.218zm46.678-1.745c8.07 0 29.228 3.49 29.228 31.846 0 28.355-21.158 31.845-29.228 31.845s-29.228-3.49-29.228-31.845c0-28.356 21.157-31.846 29.228-31.846m0 53.221c6.761 0 16.359-4.144 16.359-21.157 0-17.014-9.598-21.158-16.36-21.158s-16.577 4.144-16.577 21.158c0 17.013 9.816 21.157 16.578 21.157m118.657 9.161h-12.651V81.14h-18.54V70.454h49.513V81.14H203.07zm35.554-27.265v27.265h-12.651V70.453h12.651v22.903h23.557V70.453h12.651v60.637h-12.651v-27.265zM118.876 70.453h30.755c16.141 0 19.194 11.996 19.194 17.231 0 6.762-3.49 12.433-9.379 14.396 5.017 2.182 7.634 4.145 7.634 15.487 0 8.943 0 11.124 2.618 11.997v1.526h-13.96c-.872-2.835-1.309-5.889-1.309-12.214 0-8.289-.436-11.561-9.815-11.561h-13.087v23.775h-12.433zm27.265 26.61c6.543 0 9.815-2.399 9.815-8.288 0-3.272-1.527-7.852-8.943-7.852h-15.704v16.14zM89.429 203.07H76.56v-62.382h44.279v11.124h-31.41v13.96h27.484v11.124H89.429zm37.299 0h-13.742l22.249-62.382h15.05l22.03 62.382h-14.178l-3.926-12.869h-23.339zm7.634-23.557h15.923l-7.634-24.647h-.218zm77.651-18.104c-1.091-3.708-3.054-10.688-13.742-10.688-6.325 0-15.486 4.145-15.486 21.812 0 11.124 4.362 21.158 15.486 21.158 7.198 0 12.215-4.144 13.742-11.779H225.1c-2.617 13.524-11.342 22.903-27.047 22.903-16.577 0-28.355-11.124-28.355-32.718 0-21.812 12.651-32.936 28.573-32.936 18.541 0 26.175 12.869 26.829 22.03h-13.087zm63.037-9.597h-32.718v13.087h29.01v10.906h-29.01v16.141h32.718v11.124h-44.715v-62.382h44.715zM53.003 171.443c9.161 0 16.796 7.198 16.796 16.795s-7.635 16.795-16.796 16.795-17.013-7.198-17.013-16.795 7.852-16.795 17.013-16.795m0 31.191c7.853 0 13.742-6.107 13.742-14.396 0-8.071-6.108-14.178-13.742-14.178-7.852 0-13.96 6.107-13.96 14.178 0 8.07 6.108 14.396 13.96 14.396m-6.543-24.211h7.634c4.58 0 6.98 1.744 6.98 5.671 0 3.49-2.181 5.016-5.235 5.453l5.671 8.724h-3.272l-5.453-8.506h-3.272v8.506H46.46zm3.053 8.724h3.272c2.618 0 5.235-.218 5.235-3.271 0-2.618-2.181-3.054-4.362-3.054h-4.145zm266.98 11.997V167.08c0-14.396-11.779-26.174-26.175-26.174h-2.835v62.382h29.01zm119.748 0v-53.221C436.241 65.436 370.805 0 290.318 0h-1.527.219-1.527v61.074h4.144c47.332.654 85.939 39.261 86.594 86.594v55.184h58.02z"/><path d="M368.842 201.325V148.54c-.218-42.097-33.809-76.342-75.47-78.087h-4.799.218-1.526v60.855h2.835c19.631 0 35.336 15.923 35.336 35.336v36.208h43.406z"/></g><defs><clipPath id="a"><path fill="#fff" d="M0 0h436.241v205.033H0z"/></clipPath></defs></svg>
